X: 39838
T: Thirst
R: barndance
M: 4/4
K: Ddorian
|:DE|F6ED|E2 A4 de|f6 ed|c2A4 AB|
c6 AG|A2D4EF|E6 FE|D6:|
dB|c6 AG|A2 D4 dB|c6 AG|A2 d4 dB|
c6 AG|A2D4EF|E6 FE|D6|
dB|c6 AG|A2 D4 dB|c6 AG|A2 d4 de|
f6 ed|c2 A4 AG|A2 D6|D2 D4||

